resources/svg/view-grid-o.svg

<svg width="15" height="15" viewBox="0 0 15 15" fill="none" xmlns="http://www.w3.org/2000/svg">
<path d="M0 5.5H15M0 1.5H15M0 9.5H15M0 13.5H15M9.5 7.98702e-06L9.5 15M13.5 8.10623e-06L13.5 15M5.5 7.7486e-06L5.5 15M1.5 7.62939e-06L1.5 15" stroke="black"/>
</svg>

<svg viewBox="0 0 15 15" fill="none" xmlns="http://www.w3.org/2000/svg" fill="currentColor"><path d="M0 5.5h15m-15-4h15m-15 8h15m-15 4h15M9.5 0v15m4-15v15m-8-15v15m-4-15v15" stroke="currentColor"/></svg>
